static/images/tw-logo.svg

<?xml version="1.0" encoding="UTF-8"?>
<svg width="153px" height="24px" viewBox="0 0 153 24" version="1.1" xmlns="http://www.w3.org/2000/svg" xmlns:xlink="http://www.w3.org/1999/xlink">
    <!-- Generator: sketchtool 54.1 (76490) - https://sketchapp.com -->
    <title>A0ADB76F-6D07-47D1-A805-F63855CE19FF</title>
    <desc>Created with sketchtool.</desc>
    <defs>
        <polygon id="path-1" points="0.0468345324 0.0956744186 216.292018 0.0956744186 216.292018 27.4293023 0.0468345324 27.4293023"></polygon>
        <polygon id="path-3" points="41.5962277 5.00260465 67.303978 5.00260465 67.303978 23.9665116 41.5962277 23.9665116"></polygon>
    </defs>
    <g id="In-Review-UI-Design" stroke="none" stroke-width="1" fill="none" fill-rule="evenodd">
        <g id="[18/4/19]-Client-Story" transform="translate(-75.000000, -37.000000)">
            <g id="Nav-Bar-/-Desktop-/-Default">
                <g id="tw-logo-white" transform="translate(75.000000, 37.000000)">
                    <mask id="mask-2" fill="white">
                        <use xlink:href="#path-1"></use>
                    </mask>
                    <g id="Clip-2"></g>
                    <path d="M150.775788,7.4935814 C151.038061,7.50027907 151.219338,7.43888372 151.219338,7.14976744 C151.219338,6.82939535 150.884333,6.85395349 150.66063,6.85395349 L150.138287,6.85395349 L150.138287,7.4935814 L150.775788,7.4935814 Z M151.595667,8.84148837 L151.038061,8.84148837 L150.520677,7.85023256 L150.138287,7.85023256 L150.138287,8.84148837 L149.65231,8.84148837 L149.65231,6.49060465 L150.769176,6.49060465 C151.378025,6.49060465 151.66895,6.65693023 151.66895,7.21004651 C151.66895,7.64148837 151.444695,7.82009302 151.038061,7.85023256 L151.595667,8.84148837 Z M152.111949,7.6532093 C152.111949,6.68706977 151.450205,5.99888372 150.53335,5.99888372 C149.59721,5.99888372 148.953649,6.68706977 148.953649,7.6532093 C148.953649,8.63162791 149.59721,9.3147907 150.53335,9.3147907 C151.450205,9.3147907 152.111949,8.63162791 152.111949,7.6532093 L152.111949,7.6532093 Z M148.388879,7.6532093 C148.388879,6.45934884 149.3421,5.48818605 150.53335,5.48818605 C151.711376,5.48818605 152.676719,6.45934884 152.676719,7.6532093 C152.676719,8.86046512 151.711376,9.83218605 150.53335,9.83218605 C149.3421,9.83218605 148.388879,8.86046512 148.388879,7.6532093 L148.388879,7.6532093 Z" id="Fill-1" fill="#000000"></path>
                    <polyline id="Fill-3" fill="#000000" points="13.7103961 3.34102326 8.76466949 3.34102326 8.76466949 19.3618605 4.94572662 19.3618605 4.94572662 3.34102326 6.39488462e-14 3.34102326 6.39488462e-14 0.0675348837 13.7103961 0.0675348837 13.7103961 3.34102326"></polyline>
                    <path d="M18.7784435,6.91255814 C19.929471,5.94530233 21.3488328,5.17562791 22.8673737,5.17562791 C24.3605688,5.17562791 26.4659187,6.09376744 26.4659187,9.51683721 L26.4659187,19.3613023 L22.8425789,19.3613023 L22.8425789,11.0048372 C22.8425789,9.88855814 22.9158612,8.12762791 21.3488328,8.12762791 C20.2964333,8.12762791 19.4638807,8.89618605 18.7784435,9.64074419 L18.7784435,19.3613023 L15.1551037,19.3613023 L15.1551037,0.0675348837 L18.7784435,0.0675348837 L18.7784435,6.91255814" id="Fill-5" fill="#000000"></path>
                    <path d="M36.2835387,12.4180465 C36.2835387,10.6816744 35.9408201,7.87981395 33.9825857,7.87981395 C32.0238003,7.87981395 31.6810817,10.6816744 31.6810817,12.4180465 C31.6810817,14.1538605 32.0238003,16.9562791 33.9825857,16.9562791 C35.9408201,16.9562791 36.2835387,14.1538605 36.2835387,12.4180465 M27.9591138,12.4180465 C27.9591138,8.72260465 29.9669378,5.17618605 33.9825857,5.17618605 C37.9976826,5.17618605 40.0049556,8.72260465 40.0049556,12.4180465 C40.0049556,16.0883721 37.9728879,19.6593488 33.9825857,19.6593488 C29.9917325,19.6593488 27.9591138,16.0883721 27.9591138,12.4180465" id="Fill-6" fill="#000000"></path>
                    <mask id="mask-4" fill="white">
                        <use xlink:href="#path-3"></use>
                    </mask>
                    <g id="Clip-8"></g>
                    <path d="M49.2837029,17.9235349 C48.1332264,18.8907907 46.7127626,19.6593488 45.1953237,19.6593488 C43.7015777,19.6593488 41.5962277,18.7417674 41.5962277,15.3192558 L41.5962277,5.47367442 L45.2195675,5.47367442 L45.2195675,13.8312558 C45.2195675,14.9475349 45.1462852,16.7084651 46.7127626,16.7084651 C47.7657131,16.7084651 48.5982658,15.9393488 49.2837029,15.1953488 L49.2837029,5.47367442 L52.9070427,5.47367442 L52.9070427,19.3618605 L49.2837029,19.3618605 L49.2837029,17.9235349" id="Fill-7" fill="#000000"></path>
                    <path d="M60.1790681,12.4677209 C61.697058,12.4677209 62.1378536,11.2029767 62.1378536,9.88855814 C62.1378536,8.62381395 61.5504934,7.55665116 60.1790681,7.55665116 C58.6616293,7.55665116 58.1960389,8.84651163 58.1960389,10.1614884 C58.1960389,11.4262326 58.7833991,12.4677209 60.1790681,12.4677209 L60.1790681,12.4677209 Z M57.6814101,19.3869767 C57.3386915,19.6102326 57.1188447,19.8083721 57.1188447,20.2554419 C57.1188447,21.5447442 59.689785,21.6189767 60.5465815,21.6189767 C61.1587364,21.6189767 64.3412806,21.5447442 64.3412806,20.4284651 C64.3412806,19.7090233 63.8514465,19.783814 61.697058,19.6593488 L57.6814101,19.3869767 Z M58.8324376,14.7985116 C58.4164367,14.7985116 57.8037309,15.0217674 57.8037309,15.6669767 C57.8037309,17.4770233 67.303978,14.328 67.303978,19.7592558 C67.303978,21.8176744 65.9325527,24 60.497543,24 C55.7722141,24 54.1561473,22.3133023 54.1561473,20.5032558 C54.1561473,19.436093 54.8173407,18.8907907 55.6498934,18.3946047 C55.0619822,17.948093 54.5721481,17.4273488 54.5721481,16.6342326 C54.5721481,15.2695814 55.3066238,14.5506977 56.3595743,13.8563721 C55.3556623,12.8645581 54.6454304,11.6243721 54.6454304,10.0370233 C54.6454304,6.96167442 57.2163707,5.17562791 60.1790681,5.17562791 C61.3791342,5.17562791 62.5296107,5.52334884 63.5577664,6.14288372 C64.2916911,5.44911628 64.9534355,5.00260465 66.0306297,5.00260465 C66.3733483,5.00260465 66.7403106,5.02716279 67.0835802,5.10139535 L67.0835802,7.68111628 C66.7160669,7.53209302 66.3243098,7.38306977 65.9325527,7.38306977 C65.5407956,7.38306977 65.296154,7.50753488 64.9534355,7.68111628 C65.3446416,8.42511628 65.6636674,9.24334884 65.6879111,10.0370233 C65.6879111,13.1123721 63.1417656,14.8978605 60.1790681,14.8978605 L58.8324376,14.7985116 L58.8324376,14.7985116 Z" id="Fill-9" fill="#000000"></path>
                    <path d="M72.2733974,6.91255814 C73.4244249,5.94530233 74.8443377,5.17562791 76.3623275,5.17562791 C77.8555226,5.17562791 79.9608726,6.09376744 79.9608726,9.51683721 L79.9608726,19.3613023 L76.3375328,19.3613023 L76.3375328,11.0048372 C76.3375328,9.88855814 76.4113661,8.12762791 74.8443377,8.12762791 C73.7913872,8.12762791 72.9588345,8.89618605 72.2733974,9.64074419 L72.2733974,19.3613023 L68.6500576,19.3613023 L68.6500576,0.0675348837 L72.2733974,0.0675348837 L72.2733974,6.91255814" id="Fill-11" fill="#000000"></path>
                    <path d="M86.5474609,5.47367442 L89.3624917,5.47367442 L89.3624917,8.52446512 L86.5474609,8.52446512 L86.5474609,15.5927442 C86.5474609,16.2625116 86.7425129,16.9562791 87.9177842,16.9562791 C88.5293881,16.9562791 88.9216961,16.7084651 89.3624917,16.4355349 L89.3624917,19.2385116 C88.6037723,19.4617674 87.8197072,19.6593488 87.036193,19.6593488 C84.7842785,19.6593488 82.92357,18.3700465 82.92357,15.3443721 L82.92357,8.52446512 L81.2347719,8.52446512 L81.2347719,5.47367442 L82.92357,5.47367442 L82.92357,2.00204651 L86.5474609,2.00204651 L86.5474609,5.47367442" id="Fill-12" fill="#000000"></path>
                    <polyline id="Fill-13" fill="#000000" points="104.443762 19.3618605 102.485528 19.3618605 99.253394 3.58883721 99.2043555 3.58883721 95.8014135 19.3618605 93.842628 19.3618605 89.8523259 0.0675348837 91.7615218 0.0675348837 94.8955785 15.6418605 94.944066 15.6418605 98.3723538 0.0675348837 100.256755 0.0675348837 103.514234 15.6418605 103.562171 15.6418605 106.916625 0.0675348837 108.802129 0.0675348837 104.443762 19.3618605"></polyline>
                    <path d="M116.88081,12.5168372 C116.88081,10.1860465 116.317694,6.912 113.379791,6.912 C110.441888,6.912 109.878772,10.1860465 109.878772,12.5168372 C109.878772,14.8487442 110.441888,18.1222326 113.379791,18.1222326 C116.317694,18.1222326 116.88081,14.8487442 116.88081,12.5168372 M107.969576,12.5168372 C107.969576,7.38362791 110.368606,5.27553488 113.379791,5.27553488 C116.391527,5.27553488 118.790557,7.38362791 118.790557,12.5168372 C118.790557,17.6511628 116.391527,19.7586977 113.379791,19.7586977 C110.368606,19.7586977 107.969576,17.6511628 107.969576,12.5168372" id="Fill-14" fill="#000000"></path>
                    <path d="M122.193499,8.62381395 L122.242537,8.62381395 C123.001257,6.9867907 123.980374,5.47367442 125.988749,5.47367442 L126.723225,5.47367442 L126.723225,7.23404651 C124.225567,6.88688372 122.928526,9.61562791 122.193499,11.599814 L122.193499,19.3613023 L120.283752,19.3613023 L120.283752,5.67237209 L122.193499,5.67237209 L122.193499,8.62381395" id="Fill-15" fill="#000000"></path>
                    <polyline id="Fill-16" fill="#000000" points="130.175205 12.0212093 135.194214 5.67181395 137.324359 5.67181395 133.602391 10.3590698 137.886373 19.3618605 135.830613 19.3618605 132.378081 11.9218605 130.175205 14.6746047 130.175205 19.3618605 128.265458 19.3618605 128.265458 0.0675348837 130.175205 0.0675348837 130.175205 12.0212093"></polyline>
                    <path d="M146.162311,8.72260465 C145.403591,7.58176744 144.496654,6.91255814 143.076741,6.91255814 C141.828739,6.91255814 140.654019,7.55665116 140.654019,8.94586047 C140.654019,12.2935814 147.778377,10.8312558 147.778377,15.4437209 C147.778377,18.1222326 145.892874,19.7592558 143.34728,19.7592558 C141.166994,19.7592558 139.404914,18.792 138.302925,16.8820465 L139.821466,15.9147907 C140.556493,17.3285581 141.731213,18.1222326 143.34728,18.1222326 C144.742398,18.1222326 145.9904,17.3536744 145.9904,15.7908837 C145.9904,12.343814 138.866592,13.9802791 138.866592,9.06976744 C138.866592,6.71386047 140.77689,5.27553488 143.00401,5.27553488 C144.888962,5.27553488 146.455991,6.06865116 147.507839,7.65655814 L146.162311,8.72260465" id="Fill-17" fill="#000000"></path>
                </g>
            </g>
        </g>
    </g>
</svg>

<svg width="153" height="24" xmlns="http://www.w3.org/2000/svg"><path d="M150.776 7.494c.262.006.443-.055.443-.344 0-.32-.335-.296-.558-.296h-.523v.64h.638zm.82 1.347h-.558l-.517-.99h-.383v.99h-.486v-2.35h1.117c.609 0 .9.166.9.719 0 .431-.224.61-.63.64l.557.991zm.516-1.188c0-.966-.662-1.654-1.579-1.654-.936 0-1.58.688-1.58 1.654 0 .979.644 1.662 1.58 1.662.917 0 1.579-.683 1.579-1.662zm-3.723 0c0-1.194.953-2.165 2.144-2.165 1.178 0 2.144.971 2.144 2.165 0 1.207-.966 2.18-2.144 2.18-1.19 0-2.144-.973-2.144-2.18zM13.71 3.341H8.765v16.02h-3.82V3.342H0V.068h13.71V3.34m5.068 3.573c1.151-.968 2.57-1.737 4.09-1.737 1.493 0 3.598.918 3.598 4.34v9.845h-3.623v-8.356c0-1.116.073-2.877-1.494-2.877-1.053 0-1.885.768-2.57 1.513v9.72h-3.624V.068h3.623v6.845m17.506 5.505c0-1.736-.343-4.538-2.301-4.538-1.96 0-2.302 2.802-2.302 4.538 0 1.736.343 4.538 2.302 4.538 1.958 0 2.3-2.802 2.3-4.538m-8.324 0c0-3.695 2.008-7.242 6.024-7.242 4.015 0 6.022 3.547 6.022 7.242 0 3.67-2.032 7.241-6.022 7.241-3.991 0-6.024-3.57-6.024-7.241m21.325 5.506c-1.15.967-2.571 1.735-4.089 1.735-1.493 0-3.599-.917-3.599-4.34V5.474h3.624v8.357c0 1.117-.074 2.877 1.493 2.877 1.053 0 1.885-.769 2.57-1.513V5.474h3.624v13.888h-3.623v-1.438m10.896-5.456c1.517 0 1.958-1.265 1.958-2.58 0-1.264-.588-2.331-1.959-2.331-1.517 0-1.983 1.29-1.983 2.604 0 1.265.587 2.307 1.983 2.307zm-2.499 6.919c-.342.223-.562.421-.562.868 0 1.29 2.57 1.364 3.428 1.364.612 0 3.794-.074 3.794-1.19 0-.72-.49-.645-2.644-.77l-4.016-.272zm1.151-4.588c-.416 0-1.028.223-1.028.868 0 1.81 9.5-1.339 9.5 4.092 0 2.059-1.371 4.241-6.806 4.241-4.726 0-6.342-1.687-6.342-3.497 0-1.067.661-1.612 1.494-2.108-.588-.447-1.078-.968-1.078-1.76 0-1.365.735-2.084 1.788-2.779-1.004-.991-1.715-2.232-1.715-3.819 0-3.075 2.571-4.861 5.534-4.861 1.2 0 2.35.347 3.379.967.734-.694 1.395-1.14 2.473-1.14.342 0 .71.024 1.053.098v2.58c-.368-.149-.76-.298-1.151-.298-.392 0-.637.125-.98.298.392.744.71 1.562.735 2.356 0 3.075-2.546 4.86-5.509 4.86l-1.347-.098zm13.441-7.886c1.151-.968 2.571-1.737 4.09-1.737 1.493 0 3.598.918 3.598 4.34v9.845h-3.623v-8.356c0-1.116.073-2.877-1.494-2.877-1.053 0-1.885.768-2.57 1.513v9.72H68.65V.068h3.623v6.845m14.274-1.439h2.815v3.05h-2.815v7.069c0 .67.196 1.363 1.37 1.363.612 0 1.005-.248 1.445-.52v2.803c-.758.223-1.542.42-2.326.42-2.252 0-4.112-1.289-4.112-4.315v-6.82h-1.69v-3.05h1.69V2.002h3.623v3.472m17.897 13.888h-1.958L99.253 3.589h-.049l-3.403 15.773h-1.958L89.853.068h1.909l3.134 15.574h.048L98.372.068h1.885l3.257 15.574h.048L106.917.068h1.885l-4.358 19.294m12.436-6.845c0-2.331-.562-5.605-3.5-5.605-2.938 0-3.501 3.274-3.501 5.605 0 2.332.563 5.605 3.5 5.605 2.939 0 3.502-3.273 3.502-5.605m-8.911 0c0-5.133 2.399-7.241 5.41-7.241 3.012 0 5.41 2.108 5.41 7.24 0 5.135-2.398 7.243-5.41 7.243-3.011 0-5.41-2.108-5.41-7.242m14.223-3.893h.05c.758-1.637 1.737-3.15 3.746-3.15h.734v1.76c-2.497-.347-3.794 2.382-4.53 4.366v7.761h-1.91V5.672h1.91v2.952m7.982 3.397l5.02-6.35h2.13l-3.723 4.688 4.284 9.003h-2.055l-3.453-7.44-2.203 2.753v4.687h-1.91V.068h1.91V12.02m15.987-3.297c-.758-1.141-1.665-1.81-3.085-1.81-1.248 0-2.423.644-2.423 2.033 0 3.348 7.124 1.885 7.124 6.498 0 2.678-1.885 4.315-4.43 4.315-2.181 0-3.943-.967-5.045-2.877l1.518-.967c.735 1.414 1.91 2.207 3.526 2.207 1.395 0 2.643-.768 2.643-2.331 0-3.447-7.123-1.81-7.123-6.721 0-2.356 1.91-3.794 4.137-3.794 1.885 0 3.452.793 4.504 2.38l-1.346 1.067" fill-rule="evenodd"/></svg>
